X:2
T:Up the Walls of the World
M:4/4
L:1/8
S:Neil Brookes <neil:brookes36.freeserve.co.uk> tradtunes 2009-4-7
K:Em
|:f2|\
gfed eBBc|cBBe EBBg|gfed eBcB|AGFG E3f|
gfed eBBc|cBBe EBBe|EGBe gedB|AGFG E2:|
|:f2|\
gBeB dBeB|dBAF D3f|gBeB dBeB|EGBd e3f|
gBeB dBe2|a3b agef|gfga gedB|AGFG E2:|
